packages/icons/src/assets/default/captions-on.svg

<svg width="18" height="18" viewBox="0 0 18 18" fill="none" xmlns="http://www.w3.org/2000/svg">
<path d="M15 2C16.6569 2 18 3.34315 18 5V13C18 14.6569 16.6569 16 15 16H3C1.34315 16 1.61067e-08 14.6569 0 13V5C1.28853e-07 3.34315 1.34315 2 3 2H15ZM4 11C3.44772 11 3 11.4477 3 12C3 12.5523 3.44772 13 4 13H9C9.55228 13 10 12.5523 10 12C10 11.4477 9.55229 11 9 11H4ZM12 11C11.4477 11 11 11.4477 11 12C11 12.5523 11.4477 13 12 13H14C14.5523 13 15 12.5523 15 12C15 11.4477 14.5523 11 14 11H12ZM4 8C3.44772 8 3 8.44772 3 9C3 9.55228 3.44772 10 4 10H5C5.55228 10 6 9.55228 6 9C6 8.44772 5.55228 8 5 8H4ZM8 8C7.44772 8 7 8.44772 7 9C7 9.55228 7.44772 10 8 10H11C11.5523 10 12 9.55228 12 9C12 8.44772 11.5523 8 11 8H8ZM14 8C13.4477 8 13 8.44772 13 9C13 9.55228 13.4477 10 14 10C14.5523 10 15 9.55228 15 9C15 8.44772 14.5523 8 14 8Z" fill="black"/>
</svg>

<svg xmlns="http://www.w3.org/2000/svg" width="18" height="18" fill="currentColor" viewBox="0 0 18 18">
  <path d="M15 2a3 3 0 0 1 3 3v8a3 3 0 0 1-3 3H3a3 3 0 0 1-3-3V5a3 3 0 0 1 3-3zM4 11a1 1 0 1 0 0 2h5a1 1 0 1 0 0-2zm8 0a1 1 0 1 0 0 2h2a1 1 0 1 0 0-2zM4 8a1 1 0 0 0 0 2h1a1 1 0 0 0 0-2zm4 0a1 1 0 0 0 0 2h3a1 1 0 1 0 0-2zm6 0a1 1 0 1 0 0 2 1 1 0 0 0 0-2"/>
</svg>
